X:1
T:Title
%%score { 1 | ( 2 3 ) }
L:1/8
Q:1/4=124
M:3/4
K:A
V:1 treble nm="Grand Piano"
V:2 bass 
V:3 bass 
V:1
 [Ec]4 [DB]2 | [CA]4 [EG]2 | F2 A2 F2 | [DF]2 [CE]2 z2 | [CA]4 [Ec]2 | [EB]4 [EG]2 | [EA]4 [EB]2 | %7
w: L.~H.~Parthemore *|||||||
 [Ec]4 z2 | [Ec]4 [DB]2 | [CA]4 [EG]2 | F2 A2 F2 | [DF]2 [CE]2 z2 | [CA]4 [Fd]2 | [Ec]4 B2 | %14
w: |||||||
 A4 G2 | [CA]4 z2 | A4 F2 | A4 F2 | [CE]4 C2 | [CE]4 z2 | c4 c2 | B4 A2 | G4 A2 | B4 z2 | c4 B2 | %25
w: |||||||||||
 A4 [EG]2 | F2 A2 F2 | [CE]4 z2 | [CA]4 [Ec]2 | B4 G2 | [CA]6- | [CA]4 z2 |] %32
w: |||||||
V:2
 [A,,A,]4 [A,,A,]2 | [A,,A,]4 [C,A,]2 | A,2 z2 z2 | [A,,A,]2 [A,,A,]2 z2 | [A,,A,]4 [A,,A,]2 | %5
 [E,G,]4 [D,B,]2 | [C,A,]4 [B,,G,]2 | [A,,A,]4 z2 | [A,,A,]4 [A,,A,]2 | [A,,A,]4 [C,A,]2 | %10
 A,2 z2 z2 | [A,,A,]2 [A,,A,]2 z2 | [A,,A,]4 [A,,A,]2 | [A,,A,]4 [D,F,D]2 | [E,C]4 [E,B,]2 | %15
 [A,,E,]4 z2 | [D,F,D]4 [D,A,D]2 | [D,F,D]4 [D,A,D]2 | [A,,A,]4 [A,,A,]2 | [A,,A,]4 z2 | %20
 [A,E]4 [A,E]2 | [G,DE]4 [A,CE]2 | [E,B,D]4 [E,A,C]2 | [E,G,E]4 z2 | [A,E]4 [A,D]2 | %25
 [A,C]4 [C,A,]2 | A,2 z2 z2 | [A,,A,]4 z2 | [A,,A,]4 [A,,A,]2 | [D,F,D]4 [E,D]2 | [A,,E,]6- | %31
 [A,,E,]4 z2 |] %32
V:3
 x6 | x6 | [D,D]2- [D,F,D]2 [D,A,D]2 | x6 | x6 | x6 | x6 | x6 | x6 | x6 | %10
 [D,D]2- [D,F,D]2 [D,A,D]2 | x6 | x6 | x6 | x6 | x6 | x6 | x6 | x6 | x6 | x6 | x6 | x6 | x6 | x6 | %25
 x6 | [D,D]2- [D,F,D]2 [D,A,D]2 | x6 | x6 | x6 | x6 | x6 |] %32

